icons/1_Primary/Termius.svg

<svg width="1024" height="1024" viewBox="0 0 1024 1024" fill="none" xmlns="http://www.w3.org/2000/svg">
<g clip-path="url(#clip0_2_3618)">
<path d="M512 1024C794.77 1024 1024 794.77 1024 512C1024 229.23 794.77 0 512 0C229.23 0 0 229.23 0 512C0 794.77 229.23 1024 512 1024Z" fill="#A0A5AF"/>
<path d="M589.59 560.91C577.487 565.704 564.607 568.239 551.59 568.39C539.166 568.369 526.876 565.817 515.47 560.89L514.53 560.5C510.25 558.66 508.41 556.44 508.41 551.56V545.05C508.41 539.33 511.71 535.65 517.08 535.65L518.28 535.81L518.6 535.93C529.102 540.101 540.3 542.245 551.6 542.25C563.586 542.127 575.464 539.973 586.73 535.88L587.81 535.64H588.11C593.48 535.64 596.78 539.32 596.78 545.04V551.55C596.78 556.73 595 558.6 590.04 560.74L589.59 560.91ZM430.27 498.54C426.62 499.31 423.9 502.19 423.9 507.44V518.35C423.9 522.47 426.43 525.3 430.37 525.3C431.364 525.287 432.351 525.128 433.3 524.83L496.12 504.51C500.89 502.92 503.51 499.09 503.51 493.86V484.8C503.51 479.56 500.89 475.74 496.13 474.15L433.44 453.87C432.388 453.457 431.27 453.237 430.14 453.22C426.82 453.22 423.91 455.3 423.91 460.14V471.2C423.91 476.2 426.54 479.12 430.19 480.08L465.4 489.32L430.27 498.54ZM747 434.26C746.38 357.26 683.6 294.9 606.49 294.9C584.265 294.874 562.354 300.143 542.57 310.27C516.514 285.642 482.004 271.944 446.15 272C370.7 272 309 331.73 305.77 406.4C283.165 419.038 264.339 437.474 251.231 459.81C238.124 482.146 231.209 507.573 231.2 533.47C231.2 613.73 296.47 679 376.72 679C380.52 679 384.317 678.854 388.11 678.56C401.387 700.861 420.211 719.346 442.75 732.215C465.289 745.085 490.776 751.901 516.73 752H517.19C541.968 751.988 566.354 745.823 588.161 734.059C609.968 722.295 628.513 705.3 642.13 684.6C644.083 684.68 646.037 684.72 647.99 684.72C727.86 684.72 792.8 619.77 792.8 539.91C792.713 520.117 788.61 500.548 780.737 482.387C772.864 464.227 761.387 447.854 747 434.26ZM648 646.51C643.426 646.507 638.857 646.213 634.32 645.63L621.32 643.97L615.07 655.45C605.495 673.108 591.328 687.85 574.065 698.119C556.803 708.388 537.086 713.803 517 713.79C495.852 713.728 475.152 707.686 457.291 696.362C439.43 685.037 425.136 668.892 416.06 649.79L409.83 636.62L395.48 639.15C369.712 643.702 343.169 638.684 320.841 625.04C298.512 611.396 281.937 590.066 274.23 565.06C266.524 540.053 268.217 513.093 278.992 489.248C289.766 465.402 308.88 446.313 332.74 435.57L344.59 430.23L343.98 417.23C343.91 415.65 343.87 414.06 343.87 412.49C343.87 391.501 350.326 371.02 362.363 353.825C374.399 336.63 391.434 323.554 411.155 316.37C430.876 309.186 452.33 308.241 472.606 313.665C492.883 319.089 511 330.619 524.5 346.69L535.5 359.78L549.73 350.28C565.135 340.003 583.04 334.1 601.537 333.201C620.033 332.303 638.427 336.442 654.755 345.178C671.083 353.914 684.733 366.919 694.25 382.805C703.766 398.69 708.792 416.862 708.79 435.38C708.79 437.38 708.73 439.47 708.6 441.49L708 451.23L715.54 457.42C727.678 467.478 737.465 480.073 744.213 494.319C750.961 508.565 754.507 524.117 754.6 539.88C754.571 568.146 743.331 595.246 723.347 615.236C703.363 635.226 676.266 646.473 648 646.51Z" fill="white"/>
</g>
<defs>
<clipPath id="clip0_2_3618">
<rect width="1024" height="1024" fill="white"/>
</clipPath>
</defs>
</svg>

<svg xmlns="http://www.w3.org/2000/svg" viewBox="0 0 1024 1024">
   <circle cx="512" cy="512" r="512" style="fill:#a4b3ba"/>
   <path d="M589.59 560.91a106.54 106.54 0 0 1-38 7.48 91.47 91.47 0 0 1-36.12-7.5l-.94-.39c-4.28-1.84-6.12-4.06-6.12-8.94v-6.51c0-5.72 3.3-9.4 8.67-9.4l1.2.16.32.12a89.52 89.52 0 0 0 33 6.32 106.07 106.07 0 0 0 35.13-6.37l1.08-.24h.3c5.37 0 8.67 3.68 8.67 9.4v6.51c0 5.18-1.78 7.05-6.74 9.19zm-159.32-62.37c-3.65.77-6.37 3.65-6.37 8.9v10.91c0 4.12 2.53 6.95 6.47 6.95a10.23 10.23 0 0 0 2.93-.47l62.82-20.32c4.77-1.59 7.39-5.42 7.39-10.65v-9.06c0-5.24-2.62-9.06-7.38-10.65l-62.69-20.28a9.41 9.41 0 0 0-3.3-.65c-3.32 0-6.23 2.08-6.23 6.92v11.06c0 5 2.63 7.92 6.28 8.88l35.21 9.24zM747 434.26c-.62-77-63.4-139.36-140.51-139.36a139.92 139.92 0 0 0-63.92 15.37A140.05 140.05 0 0 0 446.15 272C370.7 272 309 331.73 305.77 406.4a145.64 145.64 0 0 0-74.57 127.07c0 80.26 65.27 145.53 145.52 145.53q5.7 0 11.39-.44A150.36 150.36 0 0 0 516.73 752h.46a149.64 149.64 0 0 0 124.94-67.4q2.93.12 5.86.12c79.87 0 144.81-64.95 144.81-144.81A146.23 146.23 0 0 0 747 434.26zm-99 212.25a107.88 107.88 0 0 1-13.68-.88l-13-1.66-6.25 11.48A111.48 111.48 0 0 1 517 713.79a112.12 112.12 0 0 1-100.94-64l-6.23-13.17-14.35 2.53a107.34 107.34 0 0 1-62.74-203.58l11.85-5.34-.61-13c-.07-1.58-.11-3.17-.11-4.74a102.3 102.3 0 0 1 180.63-65.8l11 13.09 14.23-9.5a102.29 102.29 0 0 1 159.06 85.1c0 2-.06 4.09-.19 6.11l-.6 9.74 7.54 6.19a107.92 107.92 0 0 1 39.06 82.46A106.74 106.74 0 0 1 648 646.51z" style="fill:#fff"/>
</svg>
